app/assets/img/ic-youth.svg

<svg height="250" viewBox="0 0 250 250" width="250" xmlns="http://www.w3.org/2000/svg"><g fill="none" fill-rule="evenodd"><path d="m0 0h250v250h-250z"/><g fill="#000" fill-rule="nonzero"><circle cx="151.042" cy="109.375" r="13.021"/><circle cx="98.958" cy="109.375" r="13.021"/><path d="m239.010417 131.927083c.364583-2.239583.572916-4.583333.572916-6.927083s-.208333-4.6875-.572916-6.927083c-2.65625-15.729167-14.166667-28.4895837-29.21875-33.0208337-5.46875-11.6145833-13.333334-21.9270833-22.864584-30.3125-16.510416-14.5833333-38.177083-23.4895833-61.927083-23.4895833s-45.4166667 8.90625-61.9270833 23.4895833c-9.53125 8.4375-17.34375 18.6979167-22.8645834 30.3125-15.0520833 4.4791667-26.5625 17.2395837-29.21875 33.0208337-.3645833 2.239583-.5729166 4.583333-.5729166 6.927083s.2083333 4.6875.5729166 6.927083c2.65625 15.729167 14.1666667 28.489584 29.21875 33.020834 5.4166667 11.510416 13.1770834 21.71875 22.6041667 30.104166 16.5625 14.6875 38.28125 23.697917 62.1875 23.697917s45.625-9.010417 62.1875-23.697917c9.427083-8.385416 17.1875-18.59375 22.604167-30.104166 15.052083-4.53125 26.5625-17.291667 29.21875-33.020834zm-41.09375 13.90625c-1.041667 0-2.03125-.15625-2.96875-.3125-2.03125 6.927084-5.104167 13.4375-8.958334 19.375-13.072916 19.84375-35.520833 33.020834-60.989583 33.020834s-47.9166667-13.177084-60.9375-33.020834c-3.90625-5.9375-6.9270833-12.447916-8.9583333-19.375-.9895834.15625-1.9791667.3125-3.0208334.3125-11.4583333 0-20.8333333-9.375-20.8333333-20.833333s9.375-20.833333 20.8333333-20.833333c1.0416667 0 2.03125.15625 2.96875.3125 2.03125-6.9270837 5.1041667-13.4375003 8.9583334-19.3750003 13.0729166-19.84375 35.5208333-33.0208334 60.9895833-33.0208334s47.916667 13.1770834 60.9375 33.0208334c3.90625 5.9375 6.927083 12.4479166 8.958333 19.3750003.989584-.15625 1.979167-.3125 3.020834-.3125 11.458333 0 20.833333 9.375 20.833333 20.833333s-9.375 20.833333-20.833333 20.833333zm-119.791667 0c7.9166667 18.385417 25.885417 31.25 46.875 31.25s38.958333-12.864583 46.875-31.25z"/></g></g></svg>

<svg xmlns="http://www.w3.org/2000/svg" width="250" height="250" viewBox="0 0 250 250">
  <g fill="none" fill-rule="evenodd">
    <polygon points="0 0 250 0 250 250 0 250"/>
    <circle cx="151.042" cy="109.375" r="13.021" fill="#000000" fill-rule="nonzero"/>
    <circle cx="98.958" cy="109.375" r="13.021" fill="#000000" fill-rule="nonzero"/>
    <path fill="#000000" fill-rule="nonzero" d="M239.010417,131.927083 C239.375,129.6875 239.583333,127.34375 239.583333,125 C239.583333,122.65625 239.375,120.3125 239.010417,118.072917 C236.354167,102.34375 224.84375,89.5833333 209.791667,85.0520833 C204.322917,73.4375 196.458333,63.125 186.927083,54.7395833 C170.416667,40.15625 148.75,31.25 125,31.25 C101.25,31.25 79.5833333,40.15625 63.0729167,54.7395833 C53.5416667,63.1770833 45.7291667,73.4375 40.2083333,85.0520833 C25.15625,89.53125 13.6458333,102.291667 10.9895833,118.072917 C10.625,120.3125 10.4166667,122.65625 10.4166667,125 C10.4166667,127.34375 10.625,129.6875 10.9895833,131.927083 C13.6458333,147.65625 25.15625,160.416667 40.2083333,164.947917 C45.625,176.458333 53.3854167,186.666667 62.8125,195.052083 C79.375,209.739583 101.09375,218.75 125,218.75 C148.90625,218.75 170.625,209.739583 187.1875,195.052083 C196.614583,186.666667 204.375,176.458333 209.791667,164.947917 C224.84375,160.416667 236.354167,147.65625 239.010417,131.927083 Z M197.916667,145.833333 C196.875,145.833333 195.885417,145.677083 194.947917,145.520833 C192.916667,152.447917 189.84375,158.958333 185.989583,164.895833 C172.916667,184.739583 150.46875,197.916667 125,197.916667 C99.53125,197.916667 77.0833333,184.739583 64.0625,164.895833 C60.15625,158.958333 57.1354167,152.447917 55.1041667,145.520833 C54.1145833,145.677083 53.125,145.833333 52.0833333,145.833333 C40.625,145.833333 31.25,136.458333 31.25,125 C31.25,113.541667 40.625,104.166667 52.0833333,104.166667 C53.125,104.166667 54.1145833,104.322917 55.0520833,104.479167 C57.0833333,97.5520833 60.15625,91.0416667 64.0104167,85.1041667 C77.0833333,65.2604167 99.53125,52.0833333 125,52.0833333 C150.46875,52.0833333 172.916667,65.2604167 185.9375,85.1041667 C189.84375,91.0416667 192.864583,97.5520833 194.895833,104.479167 C195.885417,104.322917 196.875,104.166667 197.916667,104.166667 C209.375,104.166667 218.75,113.541667 218.75,125 C218.75,136.458333 209.375,145.833333 197.916667,145.833333 Z M78.125,145.833333 C86.0416667,164.21875 104.010417,177.083333 125,177.083333 C145.989583,177.083333 163.958333,164.21875 171.875,145.833333 L78.125,145.833333 Z"/>
  </g>
</svg>
